X: 3
T: The Lark On The Strand
R: jig
M: 6/8
L: 1/8
K: Gmaj
|:GED G2A|BAG ABd|edd gdd|edB dBA|
GED G2A|BAG ABd|edd gdB|AGF G3:|
|:gfg efg|aed edB|Add edd|fdd edB|
g3 aga|bag fed|Add ede|fd^c d3:|


Tune 3254	Setting 3254

